app/[lang]/(home)/(new-home)/assets/stacks-appicons/mcp.svg

<svg width="32" height="32" viewBox="0 0 32 32" fill="none" xmlns="http://www.w3.org/2000/svg">
<path fill-rule="evenodd" clip-rule="evenodd" d="M20.0336 6.08415C18.9387 4.98916 17.1633 4.98912 16.0683 6.08417L5.49365 16.6588C5.12864 17.0238 4.53684 17.0238 4.17183 16.6588C3.80682 16.2937 3.80682 15.7019 4.17183 15.3369L14.7464 4.76235C16.5714 2.93732 19.5305 2.93727 21.3555 4.76233C22.4365 5.84331 22.8772 7.32214 22.6777 8.72751C24.0831 8.5279 25.5618 8.96862 26.6429 10.0496L26.6434 10.0501L26.6979 10.1047C28.5228 11.9298 28.5229 14.8888 26.6979 16.7138L17.1342 26.2776C17.0125 26.3993 17.0125 26.5965 17.1341 26.7181L19.098 28.682C19.4629 29.047 19.4629 29.6389 19.0979 30.0038C18.7329 30.3689 18.1411 30.3689 17.7761 30.0038L15.8123 28.04C14.9607 27.1883 14.9607 25.8075 15.8123 24.9558L25.3761 15.392C26.4711 14.297 26.4712 12.5216 25.3761 11.4265L25.3756 11.426L25.3211 11.3715C24.226 10.2766 22.4506 10.2765 21.3555 11.3715L13.4797 19.2474L13.4748 19.2522L13.3695 19.3575C13.0045 19.7225 12.4127 19.7225 12.0477 19.3575C11.6827 18.9924 11.6827 18.4007 12.0477 18.0356L20.0336 10.0497C21.1287 8.95464 21.1287 7.17918 20.0336 6.08415ZM18.7119 8.72782C19.0769 8.36279 19.0769 7.77102 18.7119 7.40599C18.3469 7.04097 17.7551 7.04097 17.3901 7.40599L9.56929 15.2267C7.74421 17.0518 7.74427 20.0108 9.56922 21.8359C11.3943 23.6609 14.3533 23.6609 16.1784 21.8359L23.9992 14.0151C24.3642 13.6501 24.3642 13.0583 23.9992 12.6933C23.6342 12.3282 23.0424 12.3283 22.6774 12.6933L14.8566 20.5141C13.7615 21.609 11.9861 21.609 10.8911 20.5141C9.79604 19.419 9.7961 17.6436 10.8911 16.5486L18.7119 8.72782Z" fill="#8C8C8C"/>
</svg>

<svg xmlns="http://www.w3.org/2000/svg" fill="none" viewBox="0 0 32 32">
  <path
    fill="#8C8C8C"
    fill-rule="evenodd"
    d="M20.03 6.08a2.8 2.8 0 0 0-3.96 0L5.49 16.66a.93.93 0 1 1-1.32-1.32L14.75 4.76a4.67 4.67 0 0 1 7.93 3.97c1.4-.2 2.88.24 3.96 1.32l.06.05a4.67 4.67 0 0 1 0 6.61l-9.57 9.57a.31.31 0 0 0 0 .44l1.97 1.96A.93.93 0 0 1 17.78 30l-1.97-1.96a2.18 2.18 0 0 1 0-3.08l9.57-9.57a2.8 2.8 0 0 0 0-3.96l-.06-.06a2.8 2.8 0 0 0-3.96 0l-7.88 7.88-.11.1a.93.93 0 1 1-1.32-1.31l7.98-7.99a2.8 2.8 0 0 0 0-3.97Zm-1.32 2.65A.93.93 0 0 0 17.4 7.4l-7.82 7.82a4.67 4.67 0 0 0 6.6 6.6L24 14.03a.93.93 0 0 0-1.32-1.33l-7.82 7.82a2.8 2.8 0 0 1-3.97-3.96l7.82-7.82Z"
    clip-rule="evenodd"
  />
</svg>
